X:1
T:James Gibb editions
T:Ave Maria - Bruckner
T:#
%%score 1 ( 2 3 ) { ( 4 5 ) | 6 } { ( 7 8 ) | 9 }
L:1/8
Q:1/4=95
M:4/4
K:F
V:1 treble nm="Soprano" snm="S"
V:2 treble nm="Alto" snm="A"
V:3 treble 
V:4 treble-8 nm="Tenor" snm="T"
V:5 treble-8 
V:6 treble 
V:7 bass nm="Bass" snm="B"
V:8 bass 
V:9 treble 
V:1
"^Ave Maria""^Anton Bruckner\n(1824-96)" z2!p! c2 c2 c2 | d4 c2 z2 | z2 f2 d2 c2 | d4 c2 z2 | %4
w: A- ve Ma-|ri- a|gra- ti- a|ple- na|
 B4 c2 c2 | d4 d4 | z4!f! e2 e2 | f2 e2 d2 e2 | d2 d2 d3 d | c4 z4 | z8 | z8 | z8 | z8 | z8 | z8 | %16
w: Do- mi- nus|te- cum.|Be- ne-|di- cta tu in|mu- li- e- ri-|bus|||||||
 z8 | z8 |!ff! e8 | a4 !fermata!z4 | z2!mf! e2 e2 e2 | f4 f4 | z2 f2 f2 f2 | e4 e4 | %24
w: ||Je-|sus.|San- cta Ma-|ri- a,|san- cta Ma-|ri- a,|
 z2!ff! a2 a2 a2 | a4 g4 | f6 f2 | f8- | f8 | !courtesy!=e4 z4 |!p! (f2 c2) d2 A2 | %31
w: san- cta Ma-|ri- a|ma- ter|De-||i,|o\- * ra pro|
 (B2 d2) (c2 B2) | (A2 c2) (B2 A2) |"^dim." (G2 F2 E2 D2 | C4) C4 | C4 z4 |!<(! F4 A2 B2!<)! | %37
w: no\- * bis *|pec\- * ca\- *|to\- * * *|* ri-|bus,|nunc et in|
 c6 d2 |!>(! _e6 _E2!>)! | _E4 D2 z2 | z2 f4 F2 | F4 !courtesy!=E2 z2 | B4 A2 A2 | d6 G2 | %44
w: ho- ra|mor- tis|nos- trae,|mor- tis|nos- trae.|San- cta Ma-|ri- a|
 B4 A2 (GF) | (E4 F4- | F2 ED E4) | F4 z4 |!<(! F8-!<)! | F8 |!>(! !fermata!F8!>)! |] %51
w: o- ra pro *|no\- *||bis.|A\-||men.|
V:2
 z2!p! [FA]2 [FA]2 [FA]2 | [FA]4 [FA]2 z2 | z2 [FA]2 [FA]2 [FA]2 | [DF]4 [FA]2 z2 | %4
w: A- ve Ma-|ri- a|gra- ti- a|ple- na|
 [DF]4 [EG]2 [FA]2- | [FA]2 c4 B2 | z4!f! [CB]2 [^CB]2 | [DA]2 [EG]2 [FA]2 [EG]2 | %8
w: Do- mi- nus|* te- cum.|Be- ne-|di- cta tu in|
 [FA]2 [^Fc]2 [Gc]2 [G=B]2 | [Cc]4 z4 | z8 | z8 | z8 | z8 | z8 | z8 |!mf! [EA]8 | [A^c]4 z4 | %18
w: mu- li- e- ri-|bus|||||||Je-|sus,|
!ff! [A^c]8 | [^ce]4 !fermata!z4 | z2!mf! [A^c]2 [Ac]2 [Ac]2 | [A-^c]2 [Ad]2 [Bd]4 | %22
w: Je-|sus.|San- cta Ma-|ri\- * a,|
 z2 [Bd]2 [Bd]2 [Bd]2 | [Bd]4 [A=c]4 | z2!ff! [Ac]2 [cf]2 [cf]2 | [Bd]4 [B_e]4 | [c_e]6 [ce]2 | %27
w: san- cta Ma-|ri- a,|san- cta Ma-|ri- a|ma- ter|
 d8- | d8 | c4 z4 |!p! ([Ac]2 [FA]2) [FB]2 F2 | F2- [FB]2 [EG]4 | (F2 G2) (F3 E) | %33
w: ||i,|o\- * ra pro|no\- * bis|pec\- * ca\- *|
"^dim." (D2 C4 =B,2 | C4) C4 | C4 z4 |!<(! F4 F2 G2!<)! | A6 !courtesy!_B2 |!>(! c6 C2!>)! | %39
w: to\- * *|* ri-|bus,|nunc et in|ho- ra|mor- tis|
 C4 B,2 z2 | z2 d4 D2 | D4 C2 z2 | G4 F2 F2 | F6 F2 | E4 F2 C2 | (C4 D4 | C8) | C4 z4 | %48
w: nos- trae,|mor- tis|nos- trae.|San- cta Ma-|ri- a|o- ra pro|no\- *||bis.|
!<(! D8-!<)! | D8 |!>(! !fermata!C8!>)! |] %51
w: A\-||men.|
V:3
 z2 x6 | x8 | x8 | x8 | x8 | x2 ^F2 G4 | z4 x4 | x8 | x8 | x8 | x8 | x8 | x8 | x8 | x8 | x8 | x8 | %17
w: |||||||||||||||||
 x8 | x8 | x8 | x8 | x8 | x8 | x8 | x8 | x8 | x8 | (c4 B2 A2 | B4 A4) | G4 x4 | x8 | x8 | x8 | x8 | %34
w: ||||||||||De\- * *|||||||
 x8 | x8 | x8 | x8 | x8 | x8 | x8 | x8 | x8 | x8 | x8 | x8 | x8 | x8 | x8 | x8 | x8 |] %51
w: |||||||||||||||||
V:4
 z8 | z8 | z8 | z8 | z8 | z8 | z8 | z8 | z4 z4 | z2!p! [ce]2 [ce]2 [ce]2 | [=Bdf]6 [ce]2 | %11
w: |||||||||et be- ne-|di- ctus|
 [ce]2 [=Bd]2 [Bd]2 [Ac]2 | [^Gc]2- [G=B]2 [Ac]4 | [^G=B]4 z4 |!mp! [A^c]8 | [^ce]4 z4 | %16
w: fru- ctus ven- tris|tu\- * *|i,|Je-|sus,|
!mf! [A^c]8 | [Ae]4 z4 |!ff! [^ce]8 | [^ce]4 !fermata!z4 | z4 z4 | z2!mf! !tenuto![df]2 d2 [df]2 | %22
w: Je-|sus,|Je-|sus.||San- cta Ma-|
 [df]4 [dg]4 | z2!ff! [eg]2 [eg]2 [eg]2 | [cg]4 [cf]2- [df]2 | ([df]4- [d_e]4 | %26
w: ri- a,|san- cta Ma-|ri- a *|ma\- *|
 [cf]6)"^ö""^ø" [cf]2 |[M:4/4][K:treble-8] (f8 | d8) | !courtesy!=e4 z4 | z4!p! (f2 c2) | %31
w: * ter|De\-||i,|o\- *|
 d2 G2 c2 c2 | (c2 e2) (d2 c2) |"^dim." (B2 A2 G4- | G4) A4 | G4"^ø" z4 | %36
w: ra pro no bis|pe\- * ca\- *|to\- * *|* ri-|bus,|
[M:4/4][K:treble-8]!<(! F4 c2 c2!<)! | c2 f4 f2 |!>(! f6 F2!>)! | F4 F2 z2 |!p! z2 g4 [Gd]2 | %41
w: nunc et in|ho- * ra|mor- tis|nos- trae,|* tis|
 G4 G2 z2 | c4 c2 c2 | G6 d2 | [Gc]4 c2 (BA) | (G4 _A4 | G4- G !courtesy!=A2 B) | A4 z4 | %48
w: nos- trae.|San- cta Ma-|ri- a|o- ra pro *|no\- *||bis.|
!<(! B8-!<)! | B8 |!>(! !fermata!A8!>)! |] %51
w: A\-||men.|
V:5
 x8 | x8 | x8 | x8 | x8 | x8 | z4 z4 | z4 z4 | x8 | x8 | x8 | x8 | x8 | x8 | x8 | x8 | x8 | x8 | %18
w: ||||||||||||||||||
 x8 | x8 | x8 | x8 | x8 | x8 | x8 | x8 | x8 |[M:4/4][K:treble-8] x8 | x8 | x8 | x8 | x8 | x8 | x8 | %34
w: ||||||||||||||||
 x8 | x8 |[M:4/4][K:treble-8] x8 | x8 | x8 | x8 | d6 x2 | x8 | x8 | x8 | x8 | x8 | x8 | x8 | x8 | %49
w: ||||||mor-|||||||||
 x8 | x8 |] %51
w: ||
V:6
 x8 | x8 | x8 | x8 | x8 | x8 | x8 | x8 | x8 | x8 | x8 | x8 | x8 | x8 | x8 | x8 | x8 | x8 | x8 | %19
w: |||||||||||||||||||
 x8 | x8 | x8 | x8 | x8 | x8 | x8 | x8 |[M:4/4][K:treble-8] (d8 | G8) | G4 z4 | z4 z4 | %31
w: ||||||||De\-||i,||
 z!p! GGG G2 c2 | (c2 e2) (d2 c2) |"^dim." (B2 A2 G2 F2 | E4) F4 | E4"^ö" z4 |[M:4/4] x8 | x8 | %38
w: o- ra pro no- bis|pec\- * ca\- *|to\- * * *|* ri-|bus,|||
 x8 | x8 | x8 | x8 | x8 | x8 | x8 | x8 | x8 | x8 | x8 | x8 | x8 |] %51
w: |||||||||||||
V:7
 z8 | z8 | z8 | z8 | z8 | z8 | z8 | z8 | z4 z4 | z2!p! [C,G,]2 [C,G,]2 [C,G,]2 | [C,_A,]6 [C,G,]2 | %11
w: |||||||||et be- ne-|di- ctus|
 [D,F,]2 [D,F,]2 [D,F,]2 [D,^F,]2 | E,4- [A,,E,]4 | E,4 z4 |!mp! [A,,E,]8 | [A,,A,]4 z4 | z4 z4 | %17
w: fru- ctus ven- tris|tu\- *|i,|Je-|sus,||
 z4 z4 |!ff!"^ø""^ö" [A,,A,]8 |[M:4/4] A,4 !fermata!z4 | z8 | z2!mf! D2 B,2 A,2 | [G,B,]4 [G,B,]4 | %23
w: |Je-|sus.||San- cta Ma-|ri- a,|
 z2!ff! G,2 A,2 A,2 | A,4 A,4 | (B,8 | F,6)"^ø" F,2 |[M:4/4] (F,8 | G,8) | [C,G,]4!p! C,2 C,2 | %30
w: san- cta Ma-|ri- a|ma\-|* ter|De\-||i, o- ra,|
 C,4 C,2 C,2 | C,4 C,4 | C,4 C,4 |"^dim." C,8- | C,4 C,4 | C,4 z4 |!<(! F,4 F,2 F,2!<)! | F,6 F,2 | %38
w: o- ra pro|no- bis|pec- ca-|to\-|* ri-|bus,|nunc et in|ho- ra|
!>(! [A,,F,]6 [A,,F,]2!>)! | [B,,F,]4 [B,,F,]2 z2 | [=B,,G,]6 [B,,G,]2 | [C,G,]4 [C,G,]2 z2 | %42
w: mor- tis|nos- trae,|mor- tis|nos- trae.|
 E,4 F,2 F,2 | !courtesy!_B,,6 B,,2 | C,4 C,2 C,2 | (C,4 =B,,4 | C,8) | [F,,F,]4 z4 | %48
w: San- cta Ma-|ri- a|o- ra pro|no\- *||bis.|
!<(! [B,,F,]8-!<)! | [B,,F,]8 |!>(! !fermata![F,,F,]8!>)! |] %51
w: A\-||men.|
V:8
 x8 | x8 | x8 | x8 | x8 | x8 | z4 z4 | z4 z4 | x8 | x8 | x8 | x8 | x8 | x8 | x8 | x8 | x8 | x8 | %18
w: ||||||||||||||||||
 x8 |[M:4/4] x8 | x8 | x8 | x8 | x8 | x8 | x8 | x8 |[M:4/4] B,,8- | B,,4 =B,,4 | x8 | x8 | x8 | %32
w: |||||||||De\-|||||
 x8 | x8 | x8 | x8 | x8 | x8 | x8 | x8 | x8 | x8 | x8 | x8 | x8 | x8 | x8 | x8 | x8 | x8 | x8 |] %51
w: |||||||||||||||||||
V:9
 x8 | x8 | x8 | x8 | x8 | x8 | x8 | x8 | x8 | x8 | x8 | x8 | x8 | x8 | x8 | x8 | x8 | x8 | x8 | %19
w: |||||||||||||||||||
[M:4/4][K:bass] A,,4 !fermata!z4 | z4 z4 | z4 z4 |!mf! z2 G,,2 G,,2 G,,2 | (G,,2 C,2) C,4 | %24
w: |||San- cta Ma-|ri\- * a,|
!ff! z2 F,,2 F,,2 F,,2 | G,,4 G,,4 | A,,6"^ö" A,,2 |[M:4/4] x8 | x8 | x8 | x8 | x8 | x8 | x8 | x8 | %35
w: san- cta Ma-|ri- a|ma- ter|||||||||
 x8 | x8 | x8 | x8 | x8 | x8 | x8 | x8 | x8 | x8 | x8 | x8 | x8 | x8 | x8 | x8 |] %51
w: ||||||||||||||||

